X: 9
T: LA RUSSE
S: "COUNTRY DANCES OF TODAY 2", CDSS, May Gadd ed., 1951 p.16
R: polka, reel
Z: 2010 John Chambers <jc:trillian.mit.edu>
M: C|
L: 1/8
K: G
"Intro."GG |\
"G"{A}G2BB {c}B2dd | "G"{e}d2g2 {a}g2fg | "D"{f}e2d2 "D7"{e}d2F2 | "G"{B}A2G2 H[G,2D2B2g2] ||
"A"|: GG !Segno!|\
"G"{A}G2BB {c}B2dd | "G"{e}d2g2 {a}g2fg | "C"{b}a2g2  e2c2 | "D"e2d2 {e}dcBA |
"G"{A}G2BB {c}B2dd | "G"{e}d2g2 {a}g2fg | "D"{f}e2d2 "D7"{e}d2F2 | "G"{B}A2G2 {A}G2 :|[K:D]
"B"|: AA |\
"D"{B}A2dd "G"{e}d2B2 | "D"A2aa {b}a2f2 | "A"{a}g2f2 g2e2 | "D"fgag f2d2 |
"D"{B}A2dd "G"{e}d2B2 | "D"A2aa {b}a2f2 | "A"{a}g2f2 g2e2 |1 "D"{c}d4 {e}d2 \
:|2 "D"{c}d2fe "D7"d"D.C. al segno"=cBA :|


%%sep 5 1 500

%%sep 1 1 500

